static/assets/images/tokens/stbtc.svg

<svg width="256" height="256" viewBox="0 0 256 256" fill="none" xmlns="http://www.w3.org/2000/svg">
<path d="M128.002 256C198.693 256 256 198.693 256 128.002C256 57.3087 198.693 0 128.002 0C57.3087 0.00202183 0 57.3108 0 128.004C0 198.695 57.3087 256 128.002 256Z" fill="#0C1013"/>
<path fill-rule="evenodd" clip-rule="evenodd" d="M128.01 228.802C183.679 228.802 228.81 183.673 228.81 128.002C228.81 72.333 183.679 27.2037 128.01 27.2037C72.339 27.2037 27.2098 72.333 27.2098 128.002C27.2098 183.673 72.339 228.802 128.01 228.802ZM128.01 240.003C189.866 240.003 240.009 189.86 240.009 128.004C240.009 66.1482 189.866 16.0028 128.01 16.0028C66.1543 16.0028 16.0109 66.1482 16.0109 128.002C16.0109 189.86 66.1543 240.003 128.01 240.003Z" fill="#FC6521"/>
<path d="M165.535 89.749C159.836 76.5141 146.712 73.7078 130.634 76.4454L125.479 56.0027L113.307 59.2234L118.392 79.5974C115.204 80.4284 111.916 81.1219 108.659 82.058L103.572 61.7871L91.3968 65.0099L96.5525 85.4526C93.9402 86.2148 71.9973 91.9669 71.9973 91.9669L75.3536 105.271C75.3536 105.271 84.3103 102.707 84.2072 102.915C89.1586 101.601 91.4979 104.128 92.5836 106.52L106.761 162.545C106.928 164.175 106.66 166.947 103.233 167.883C103.435 167.986 94.381 170.204 94.381 170.204L95.7033 185.727C95.7033 185.727 117.444 180.044 120.291 179.318L125.515 200.001L137.691 196.779L132.468 175.954C135.824 175.159 139.08 174.326 142.234 173.495L147.424 194.215L159.599 190.992L154.377 170.343C173.129 165.699 186.356 153.606 183.645 135.139C181.914 124.017 170.01 114.87 160.107 113.829C166.213 108.322 169.298 100.283 165.535 89.749ZM159.666 138.501C162.074 156.795 137.215 159.047 128.975 161.231L121.817 133.857C130.093 131.674 155.598 122.389 159.666 138.501ZM144.676 101.253C147.254 117.503 125.954 119.409 119.104 121.211L112.594 96.3665C119.478 94.6014 139.454 86.1805 144.676 101.253Z" fill="white"/>
</svg>

<svg xmlns="http://www.w3.org/2000/svg" fill="none" viewBox="0 0 256 256"><path fill="#0C1013" d="M128.002 256C198.693 256 256 198.693 256 128.002 256 57.309 198.693 0 128.002 0 57.309.002 0 57.31 0 128.004 0 198.695 57.309 256 128.002 256"/><path fill="#FC6521" fill-rule="evenodd" d="M128.01 228.802c55.669 0 100.8-45.129 100.8-100.8 0-55.669-45.131-100.798-100.8-100.798-55.671 0-100.8 45.129-100.8 100.798 0 55.671 45.129 100.8 100.8 100.8m0 11.201c61.856 0 111.999-50.143 111.999-111.999S189.866 16.003 128.01 16.003s-112 50.145-112 111.999c0 61.858 50.144 112.001 112 112.001" clip-rule="evenodd"/><path fill="#fff" d="M165.535 89.749c-5.699-13.235-18.823-16.041-34.901-13.304l-5.155-20.442-12.172 3.22 5.085 20.374c-3.188.831-6.476 1.525-9.733 2.461l-5.087-20.27-12.175 3.222 5.155 20.443c-2.612.762-24.555 6.514-24.555 6.514l3.357 13.304s8.956-2.564 8.853-2.356c4.952-1.314 7.29 1.213 8.377 3.605l14.177 56.025c.167 1.63-.101 4.402-3.528 5.338.202.103-8.852 2.321-8.852 2.321l1.322 15.523s21.741-5.683 24.588-6.409l5.224 20.683 12.176-3.222-5.223-20.825a401 401 0 0 0 9.766-2.459l5.19 20.72 12.175-3.223-5.222-20.649c18.752-4.644 31.979-16.737 29.268-35.204-1.731-11.122-13.635-20.269-23.538-21.31 6.106-5.507 9.191-13.546 5.428-24.08m-5.869 48.752c2.408 18.294-22.451 20.546-30.691 22.73l-7.158-27.374c8.276-2.183 33.781-11.468 37.849 4.644m-14.99-37.248c2.578 16.25-18.722 18.156-25.572 19.958l-6.51-24.844c6.884-1.766 26.86-10.187 32.082 4.886"/></svg>
